Papirus/16x16/apps/overcooked2.svg

<svg xmlns="http://www.w3.org/2000/svg" width="16" height="16" version="1.1">
 <path style="fill:#ae2d20" d="M 8.5,0 A 7.5,8 0 0 0 1,8 7.5,8 0 0 0 8.5,16 7.5,8 0 0 0 16,8 7.5,8 0 0 0 8.5,0 Z m 0,5.9429688 A 1.5789474,2.0571429 0 0 1 10.078947,8 1.5789474,2.0571429 0 0 1 8.5,10.057031 1.5789474,2.0571429 0 0 1 6.9210526,8 1.5789474,2.0571429 0 0 1 8.5,5.9429688 Z"/>
 <path style="fill:#ffffff" d="M 8.5 2 A 5.4999999 6 0 0 0 3 8 A 5.4999999 6 0 0 0 8.5 14 A 5.4999999 6 0 0 0 14 8 A 5.4999999 6 0 0 0 8.5 2 z M 8.4453125 4.5 A 2.651331 3.4999998 0 0 1 11.095703 8 A 2.651331 3.4999998 0 0 1 8.4453125 11.5 A 2.651331 3.4999998 0 0 1 5.7949219 8 A 2.651331 3.4999998 0 0 1 8.4453125 4.5 z"/>
 <path style="fill:#fd9a00" d="m 13.253681,15.778898 c -0.729274,-0.08118 -1.460903,-0.150407 -2.186496,-0.254407 -0.164159,-0.219499 0.0249,-0.534309 0.019,-0.792976 0.178121,-0.853229 0.883743,-1.535633 1.676963,-2.005417 0.462481,-0.308198 1.010905,-0.57897 1.285366,-1.048569 0.07512,-0.317634 0.03635,-0.666144 -0.1175,-0.961459 -0.27669,-0.291353 -0.774194,-0.274808 -1.162327,-0.220094 -0.320963,0.01093 -0.639945,0.275193 -0.910744,0.269337 -0.01943,-0.398516 0.0083,-0.8027296 0.0822,-1.195787 0.161543,-0.4232908 0.724649,-0.5236105 1.170436,-0.5558362 0.877311,-0.068244 1.868274,0.1092191 2.441754,0.7461203 0.421995,0.4530139 0.484512,1.0657159 0.431755,1.6287079 -0.01954,0.762322 -0.670825,1.360437 -1.344269,1.764301 -0.448759,0.273409 -0.963117,0.486061 -1.323822,0.855095 -0.03059,0.278774 0.543111,0.179822 0.765354,0.25608 0.540617,0.06669 1.091341,0.09796 1.620507,0.21785 0.04131,0.44308 -0.02555,0.891908 -0.08607,1.332462 0.0072,0.324607 -0.473604,0.120922 -0.696334,0.139637 -0.555647,-0.05537 -1.11051,-0.116697 -1.665757,-0.175045 z"/>
</svg>

<svg xmlns="http://www.w3.org/2000/svg" width="16" height="16" version="1.1">
 <path style="fill:#ae2d20" d="M 8.5,0 A 7.5,8 0 0 0 1,8 7.5,8 0 0 0 8.5,16 7.5,8 0 0 0 16,8 7.5,8 0 0 0 8.5,0 Z m 0,5.943 A 1.5789,2.0571 0 0 1 10.0789,8 1.5789,2.0571 0 0 1 8.5,10.057 1.5789,2.0571 0 0 1 6.9211,8 1.5789,2.0571 0 0 1 8.5,5.943 Z"/>
 <path style="fill:#ffffff" d="M 8.5 2 A 5.5 6 0 0 0 3 8 A 5.5 6 0 0 0 8.5 14 A 5.5 6 0 0 0 14 8 A 5.5 6 0 0 0 8.5 2 z M 8.4453 4.5 A 2.6513 3.5 0 0 1 11.0957 8 A 2.6513 3.5 0 0 1 8.4453 11.5 A 2.6513 3.5 0 0 1 5.7949 8 A 2.6513 3.5 0 0 1 8.4453 4.5 z"/>
 <path style="fill:#fd9a00" d="M 11.067,15.525 C 10.903,15.305 11.092,14.99 11.086,14.732 11.264,13.878 11.97,13.196 12.763,12.726 13.226,12.418 13.774,12.147 14.049,11.678 14.124,11.36 14.085,11.011 13.931,10.716 13.654,10.425 13.157,10.441 12.769,10.496 12.448,10.507 12.129,10.771 11.858,10.765 11.839,10.367 11.866,9.9625 11.94,9.5694 12.102,9.1461 12.665,9.0458 13.111,9.0136 13.988,8.9454 14.979,9.1228 15.553,9.7597 15.975,10.213 16.037,10.825 15.984,11.388 15.965,12.151 15.314,12.749 14.64,13.153 14.191,13.426 13.677,13.639 13.316,14.008 13.286,14.287 13.859,14.188 14.082,14.264 14.622,14.331 15.173,14.362 15.702,14.482 15.743,14.925 15.677,15.374 15.616,15.814 15.623,16.139 15.142,15.935 14.92,15.954"/>
</svg>
